Catalina-light/actions/16/image-sharpen.svg

<svg width="16" height="16" viewBox="0 0 16 16" xmlns="http://www.w3.org/2000/svg">
<defs>
<style id="current-color-scheme" type="text/css">.ColorScheme-Text { color:#5c616c; } .ColorScheme-Highlight { color:#5294e2; }</style>
</defs>
<path class="ColorScheme-Text" d="m7.9961 1.0566 0.0019531 0.0039063 0.0019531-0.0039063h-0.0039062zm0.0019531 0.0039063-7.7676 12.939h15.531l-7.7637-12.939zm0.0019531 3.8828 4.2344 7.0566h-8.4688l4.2344-7.0566z" fill="#363636"/>
</svg>

<svg xmlns="http://www.w3.org/2000/svg" width="16" height="16" viewBox="0 0 16 16">
 <defs>
  <style id="current-color-scheme" type="text/css">
   .ColorScheme-Text { color:#5c616c; } .ColorScheme-Highlight { color:#5294e2; }
  </style>
 </defs>
 <path style="fill:currentColor" class="ColorScheme-Text" d="M 7.9960938 1.0566406 L 7.9980469 1.0605469 L 8 1.0566406 L 7.9960938 1.0566406 z M 7.9980469 1.0605469 L 0.23046875 14 L 15.761719 14 L 7.9980469 1.0605469 z M 8 4.9433594 L 12.234375 12 L 3.765625 12 L 8 4.9433594 z"/>
</svg>
